src/pos-icons/file-send-outline.svg

<svg height="24" viewBox="0 0 24 24" width="24" xmlns="http://www.w3.org/2000/svg"><path d="m14 2h-8c-1.11 0-2 .9-2 2v16c0 1.11.89 2 2 2h12c1.11 0 2-.89 2-2v-12zm4 18h-12v-16h7v5h5zm-5.46-1.5v-2h-4v-2h4v-2l3 3z"/></svg>

<?xml version="1.0" encoding="UTF-8"?><!DOCTYPE svg PUBLIC "-//W3C//DTD SVG 1.1//EN" "http://www.w3.org/Graphics/SVG/1.1/DTD/svg11.dtd"><svg xmlns="http://www.w3.org/2000/svg" xmlns:xlink="http://www.w3.org/1999/xlink" version="1.1" id="mdi-file-send-outline" width="24" height="24" viewBox="0 0 24 24"><path d="M14 2H6C4.89 2 4 2.9 4 4V20C4 21.11 4.89 22 6 22H18C19.11 22 20 21.11 20 20V8L14 2M18 20H6V4H13V9H18V20M12.54 18.5V16.5H8.54V14.5H12.54V12.5L15.54 15.5L12.54 18.5Z" /></svg>
